X: 1
T: Flogging, The
M: 4/4
L: 1/8
R: reel
K: Gmaj
BG (3GGG BGdG | BG (3GGG Bdgd | (3BcB Ad ~B2 cB | AGFG AB (3cBA:||
~g2e dGBd |~g3 e fgaf | Gfge ~d2Bd | cBAG FGAB |
 Gfge ~d2Bd|gfge fgag |(3bag (3agf gedB | cBAG FGAB ||
Bdgd edgd | (3Bcd gd BG (3GGG | (3ABc gc acgc | (3ABc gc BG (3GGG|
Bdgd edgd | (3Bcd ef ~g3a |(3bag (3agf gedB | cBAG FGAB |] [B,4G4] |]!
